!!!OTL: Let the Rest of the World Go By
!!!COM: Ball, Ernest
!!!LAR: Embury, Phil
!! "Let the Rest of the World Go By" by Ernest Ball, arranged by Phil Embury
!! from "Close Harmony Classics for Barbershop Quartets" B. Feldman & Co.;
!! copyright 1919 & 1952 by M Witmark & Sons; pp. 14-15; in A- major;
!! NOTE:  The second ending is encoded here without the repeat.  There
!!        is a change of meter to 4/4 in the final two measures (bar 47).
**kern	**kern	**kern	**kern
*Ivox	*Ivox	*Ivox	*Ivox
*M3/4	*M3/4	*M3/4	*M3/4
*A-:	*A-:	*A-:	*A-:
4r	4r	8A-	4r
.	.	8B-	.
=1	=1	=1	=1
4A-	4A-	4c	4e-
4A-	4B-	4d-	4f
4A-	4Bn	4dn	4f-
=2	=2	=2	=2
4A-	4c	2e-	4e-
4AA-	4A-	.	4c
4BB-	4G	4e-	4d-
=3	=3	=3	=3
4AA-	4E-	4A-	4c
4F	4A-	4B-	4d-
4F-	4A-	4Bn	4dn
=4	=4	=4	=4
2E-	2A-	2c	2e-
8Dn	8A-	8Bn	8f
8E-	8A-	8c	8e-
=5	=5	=5	=5
2BB-	2d-	2E-	2g
4BB-	4G	4d-	4f
=6	=6	=6	=6
2BB-	2G	2F	2d-
4BB-	4G	4d-	4f
=7	=7	=7	=7
[2.AA-	[2.A-	[2.c	[2.e-
=8	=8	=8	=8
4AA-]	4A-]	4c]	4e-]
4r	4r	4r	4r
8AA-	8E-	8A-	8c
8E-	8G	8B-	8d-
=9	=9	=9	=9
4A-	4A-	4c	4e-
4A-	4B-	4d-	4f
4A-	4Bn	4dn	4f-
=10	=10	=10	=10
2A-	2c	2e-	2e-
8A-	8c	8c	8e-
8A-	8Bn	8dn	8f
=11	=11	=11	=11
4G	4c	4e-	4g
4G	4Bn	4dn	4f
4C	4G	4c	4e-
=12	=12	=12	=12
2C	2c	2G	2e-
4C-	4F	4A-	4e-
=13	=13	=13	=13
2BB-	2G	2B-	2e-
4E-	4G	4B-	4e-
=14	=14	=14	=14
2F	2A-	2c	2dn
4F	4A-	4c-	4d
=15	=15	=15	=15
2E-	2G	[2.B-	2d-
4F	4A-	.	4dn
=16	=16	=16	=16
2E-	2G	2B-]	2d-
4BB-	4G	4E-	4d-
=17	=17	=17	=17
4AA-	2A-	2c	2e-
4C	.	.	.
8E-	8A-	8c	8e-
8F	8A-	8Bn	8dn
=18	=18	=18	=18
2E-	2A-	2c	2e-
4AA-	4A-	4E-	4c
=19	=19	=19	=19
2E-	2G	2B-	2d-
8E-	8G	8B-	8d-
8E-	8F#	8An	8c
=20	=20	=20	=20
2E-	2G	2B-	2d-
4BB-	4G	4E-	4d-
=21	=21	=21	=21
4.E-	4.G	4.B-	4.d-
8E-	8F#	8An	8c
8E-	8G	8B-	8d-
8E-	8G	8c	8e-
=22	=22	=22	=22
2B-	2d-	2e-	2g
4A-	4B-	4d-	4f
=23	=23	=23	=23
4.E-	4.A-	4.c	4.e-
8E-	8G	8B-	8d-
8E-	8F	8A-	8c
8E-	8G	8B-	8d-
=24	=24	=24	=24
2AA-	2A-	2c	2e-
4E-	4G-	4A-	4c
=25	=25	=25	=25
2D-	2A-	2F	2d-
4D-	4F	4A-	4d-
=26	=26	=26	=26
2D-	2A-	2d-	2f
4D-	4A-	4F	4d-
=27	=27	=27	=27
2AA-	2A-	2E-	2c
4GG-	4E-	4A-	4c
=28	=28	=28	=28
2.FF	2.An	2.c	2.e-
=29	=29	=29	=29
2F	2A-	2B-	2dn
4F	4A-	4c	4d
=30	=30	=30	=30
2F	2A-	2B-	2dn
4BB-	4A-	4F	4d
=31	=31	=31	=31
2E-	2B-	2G	2e-
4F	4B-	4A-	4dn
=32	=32	=32	=32
2E-	2G	2B-	2d-
4Dn	4G	4Bn	4f
=33	=33	=33	=33
4AA-	2A-	2c	2e-
4C	.	.	.
8E-	8A-	8c	8e-
8F	8A-	8Bn	8dn
=34	=34	=34	=34
2E-	2A-	2c	2e-
4AA-	4A-	4E-	4c
=35	=35	=35	=35
2E-	2G	2B-	2d-
8E-	8G	8B-	8d-
8E-	8F#	8An	8c
=36	=36	=36	=36
2E-	2G	2B-	2d-
4BB-	4G	4E-	4d-
=37	=37	=37	=37
4.E-	4.G	4.B-	4.d-
8E-	8F#	8An	8c
8E-	8G	8B-	8d-
8E-	8G	8c	8e-
=38	=38	=38	=38
2BB-	2d-	2e-	2g
4BB-	4G	4d-	4f
=39	=39	=39	=39
2.C	[2.G	2.c	2.en
=40	=40	=40	=40
4BB-	4G]	4d-	4e-
8r	8r	8r	8r
8AA-	8A-	8E	8c
8GG	8F	8Dn	8Bn
8AA-	8A-	8E-	8c
=41	=41	=41	=41
4AA-	2A-	2c	2e-
4C	.	.	.
8E-	8A-	8c	8e-
8F	8A-	8Bn	8dn
=42	=42	=42	=42
2E-	2A-	2c	2e-
4AA-	4A-	4E-	4c
=43	=43	=43	=43
2E-	2G	2B-	2d-
8E-	8G	8B-	8d-
8E-	8F#	8An	8c
=44	=44	=44	=44
4.E-	4.G	4.B-	4.d-
8E-	8G	8B-	8d-
8E-	8F#	8An	8c
8E-	8G	8B-	8d-
=45	=45	=45	=45
2B-	2d-	2e-	2g
8E-	8B-	8d-	8g
8E-	8c	8e-	8g
=46	=46	=46	=46
2B-	2d-	2e-	2g
4E-	4c	4e-	4g
=47	=47	=47	=47
*M4/4	*M4/4	*M4/4	*M4/4
4A-	4c	4e-	4a-
4G-	4c	4e-	4a-
4F	4B-	4d-	4a-
4En	4Bn	4dn	4a-
=48	=48	=48	=48
2A-	1c	1e-	1a-
2AA-	.	.	.
==	==	==	==
*-	*-	*-	*-
